X: 9773
T: Delvinside
R: strathspey
M: 4/4
K: Edorian
E>e d/B/A/B/ dE B2|d>E d/B/A/B/ d<DA>F|E>e d/B/A/B/ dEE>g|
g/f/e/d/ f/e/d/c/ dD AG/F/:|d>EB>E d>D B/A/G/F/|d>EB>E dD B/A/G/F/|
d>EB>E dEEg|g/f/e/d/ f/e/d/c/ d>DA>F|d>EB>E dD B/A/G/F/|
d>EB>E dD B/A/G/F/|d>EB>E dEEg|f/a/g/f/ e/g/f/e/ d>D B/A/G/F/||

